X:66
T:Joe Cooley's (reel) 
F:file ID gstc/066joe_c
Z:bill@capeirish.com
N:Authorship of this tune has been a source of controversy 
over the years; some say that it was composed by Cooley 
himself, but the current consensus is that the actual composer 
was Cooley's fellow Galway box player Joe Mills, who called it 
"Luttrell's Pass". However the tune was evidently never recorded by 
that name.
Q:180
M:C
R:reel
K:Em
B,D|EBBA B2 EB|B2 AB dBAG|FDAD BDAG|FDFA dBAF|
EBB2 GBdB|B2AB defg|afge dBAF|DEFD E2 :|
gf|eBB2 efgf|eBB2 gedB|A2FE DEFA|BAFA defd|
eBB2 efgf|eBB2 defg|afge dBAF|DEFD E2 :|

